public/assets/images/str/au-01.svg

<svg fill="none" height="50" viewBox="0 0 39 50" width="39" xmlns="http://www.w3.org/2000/svg" xmlns:xlink="http://www.w3.org/1999/xlink"><clipPath id="a"><path d="m0 0h39v50h-39z"/></clipPath><g clip-path="url(#a)" fill="#dc0000"><path d="m25.4467 49.9992-8.4682-.1078 4.9127-24.7597 3.4357-1.7036c4.7224-3.0571 8.7057-7.0808 12.2712-11.3578 1.7013 4.6293 1.8685 9.9095.4135 14.6272-1.4561 4.723-4.6927 8.9827-8.4451 12.1993-1.6365 1.403-3.7612 2.6089-4.8379 4.527-1.2779 2.2758-.8809 4.5862.717 6.5743z"/><path d="m7.63086 49.9998 7.68624-22.694c.0407-.4288.1298-.9655-.4399-.9612l-3.947 1.5647 1.9686-8.3362c6.2741-2.041 12.1854-5.5528 16.2226-10.74464 1.962-2.52263 3.6854-5.6875 4.2452-8.82650688.4685.33081888.6785 1.03879688.8809 1.56034688.463 1.19935.9535 2.81573 1.1206 4.08297 1.135 8.64873-8.3296 15.34263-15.2087 18.78123l-4.6146 25.3007-.1595.2748h-7.75334z"/><path d="m11.0405 20.7988-1.44728 7.7393c-2.41179.9709-5.00285 3.1012-4.33089 5.9504.32663 1.3847 1.37581 2.0452 2.69993 2.4192.65876.1853 1.54518.3954 2.19734.2704l-1.65625 6.1347c-4.02736-.3491-7.08581-3.0969-8.056908-6.9073-1.010687-3.9666-.322232-6.9978 2.238028-10.1616 2.09176-2.5852 5.29429-4.2145 8.35493-5.444z"/></g></svg>

<svg width="39" height="50" viewBox="0 0 39 50" fill="none" xmlns="http://www.w3.org/2000/svg">
<g clip-path="url(#clip0_2436_206824)">
<path d="M25.4467 49.9992L16.9785 49.8914L21.8912 25.1317L25.3269 23.4281C30.0493 20.371 34.0326 16.3473 37.5981 12.0703C39.2994 16.6996 39.4666 21.9798 38.0116 26.6975C36.5555 31.4205 33.3189 35.6802 29.5665 38.8968C27.93 40.2998 25.8053 41.5057 24.7286 43.4238C23.4507 45.6996 23.8477 48.01 25.4456 49.9981L25.4467 49.9992Z" fill="#DC0000"/>
<path d="M7.63086 49.9998L15.3171 27.3058C15.3578 26.877 15.4469 26.3403 14.8772 26.3446L10.9302 27.9093L12.8988 19.5731C19.1729 17.5321 25.0842 14.0203 29.1214 8.82846C31.0834 6.30583 32.8068 3.14096 33.3666 0.00195312C33.8351 0.332772 34.0451 1.04075 34.2475 1.5623C34.7105 2.76165 35.201 4.37803 35.3681 5.64527C36.5031 14.294 27.0385 20.9879 20.1594 24.4265L15.5448 49.7272L15.3853 50.002H7.63196L7.63086 49.9998Z" fill="#DC0000"/>
<path d="M11.0405 20.7988L9.59322 28.5381C7.18143 29.509 4.59037 31.6393 5.26233 34.4885C5.58896 35.8732 6.63814 36.5337 7.96226 36.9077C8.62102 37.093 9.50744 37.3031 10.1596 37.1781L8.50335 43.3128C4.47599 42.9637 1.41754 40.2159 0.446442 36.4055C-0.564245 32.4389 0.12421 29.4077 2.68447 26.2439C4.77623 23.6587 7.97876 22.0294 11.0394 20.7999L11.0405 20.7988Z" fill="#DC0000"/>
</g>
<defs>
<clipPath id="clip0_2436_206824">
<rect width="39" height="50" fill="white"/>
</clipPath>
</defs>
</svg>
